resources/icons/20px/high-voltage-pole.svg

<svg width="20" height="20" viewBox="0 0 20 20" fill="none" xmlns="http://www.w3.org/2000/svg">
<path fill-rule="evenodd" clip-rule="evenodd" d="M7 0C6.44772 0 6 0.447716 6 1V4H4V2C4.55228 2 5 1.55228 5 1C5 0.447715 4.55228 0 4 0H1C0.447715 0 0 0.447715 0 1C0 1.55228 0.447715 2 1 2H2V4H1C0.447715 4 0 4.44772 0 5C0 5.55228 0.447716 6 1 6H2V8H1C0.447715 8 0 8.44771 0 9C0 9.55228 0.447715 10 1 10H4C4.55228 10 5 9.55228 5 9C5 8.44771 4.55228 8 4 8V6H6V19C6 19.5523 6.44772 20 7 20C7.41998 20 7.77948 19.7411 7.92763 19.3742L9.99999 14.5387L12.0728 19.3753C12.2213 19.7416 12.5805 20 13 20C13.5523 20 14 19.5523 14 19V6H16V8C15.4477 8 15 8.44771 15 9C15 9.55228 15.4477 10 16 10H19C19.5523 10 20 9.55228 20 9C20 8.44771 19.5523 8 19 8H18V6H19C19.5523 6 20 5.55228 20 5C20 4.44772 19.5523 4 19 4H18V2H19C19.5523 2 20 1.55228 20 1C20 0.447715 19.5523 0 19 0H16C15.4477 0 15 0.447715 15 1C15 1.55228 15.4477 2 16 2V4H14V1C14 0.447715 13.5523 0 13 0H7ZM8 2V4H12V2H8ZM12 14.1282L11.088 12.0001L12 9.87201V14.1282ZM8.51647 6L9.99999 9.46153L11.4835 6H8.51647ZM8.91202 12.0001L8 9.87208V14.1282L8.91202 12.0001Z" fill="black"/>
</svg>

<svg xmlns="http://www.w3.org/2000/svg" viewBox="0 0 20 20">
  <path d="M7 0a1 1 0 0 0-1 1v3H4V2a1 1 0 0 0 0-2H1a1 1 0 1 0 0 2h1v2H1a1 1 0 0 0 0 2h1v2H1a1 1 0 1 0 0 2h3a1 1 0 0 0 0-2V6h2v13a1 1 0 0 0 1.928.374L10 14.54l2.073 4.836A1 1 0 0 0 14 19V6h2v2a1 1 0 1 0 0 2h3a1 1 0 1 0 0-2h-1V6h1a1 1 0 1 0 0-2h-1V2h1a1 1 0 1 0 0-2h-3a1 1 0 1 0 0 2v2h-2V1a1 1 0 0 0-1-1zm1 2v2h4V2zm4 12.128L11.088 12 12 9.872zM8.516 6 10 9.462 11.483 6zm.396 6L8 9.872v4.256z"/>
</svg>
